svg/hexagon_multiple.svg

<svg xmlns="http://www.w3.org/2000/svg" viewBox="0 0 24 24"><path d="M10.25 2c.19 0 .36.11.44.26l2.22 3.96.09.28-.09.28-2.22 3.96c-.08.15-.25.26-.44.26h-4.5c-.19 0-.36-.11-.44-.26L3.09 6.78 3 6.5l.09-.28 2.22-3.96c.08-.15.25-.26.44-.26zm0 11c.19 0 .36.11.44.26l2.22 3.96.09.28-.09.28-2.22 3.96c-.08.15-.25.26-.44.26h-4.5c-.19 0-.36-.11-.44-.26l-2.22-3.96L3 17.5l.09-.28 2.22-3.96c.08-.15.25-.26.44-.26zm9.25-5.5c.19 0 .36.11.44.26l2.22 3.96.09.28-.09.28-2.22 3.96c-.08.15-.25.26-.44.26H15c-.19 0-.36-.11-.44-.26l-2.22-3.96-.09-.28.09-.28 2.22-3.96c.08-.15.25-.26.44-.26z"/></svg>

<?xml version="1.0" encoding="UTF-8"?><!DOCTYPE svg PUBLIC "-//W3C//DTD SVG 1.1//EN" "http://www.w3.org/Graphics/SVG/1.1/DTD/svg11.dtd"><svg xmlns="http://www.w3.org/2000/svg" xmlns:xlink="http://www.w3.org/1999/xlink" version="1.1" id="mdi-hexagon-multiple" width="24" height="24" viewBox="0 0 24 24"><path d="M10.25,2C10.44,2 10.61,2.11 10.69,2.26L12.91,6.22L13,6.5L12.91,6.78L10.69,10.74C10.61,10.89 10.44,11 10.25,11H5.75C5.56,11 5.39,10.89 5.31,10.74L3.09,6.78L3,6.5L3.09,6.22L5.31,2.26C5.39,2.11 5.56,2 5.75,2H10.25M10.25,13C10.44,13 10.61,13.11 10.69,13.26L12.91,17.22L13,17.5L12.91,17.78L10.69,21.74C10.61,21.89 10.44,22 10.25,22H5.75C5.56,22 5.39,21.89 5.31,21.74L3.09,17.78L3,17.5L3.09,17.22L5.31,13.26C5.39,13.11 5.56,13 5.75,13H10.25M19.5,7.5C19.69,7.5 19.86,7.61 19.94,7.76L22.16,11.72L22.25,12L22.16,12.28L19.94,16.24C19.86,16.39 19.69,16.5 19.5,16.5H15C14.81,16.5 14.64,16.39 14.56,16.24L12.34,12.28L12.25,12L12.34,11.72L14.56,7.76C14.64,7.61 14.81,7.5 15,7.5H19.5Z" /></svg>
